// Beat using slice() to chop and rearrange
$: s("breaks165")
  .slice(8, "0 2 4 6 1 5 3 7")
  .gain(0.8)



// Granular texture with striate()
$: s("bass3")
  .striate("<16 24 32>")
  .speed("<1 0.5 1.5>")
  .room(0.5)
  .gain(0.6)
