// licensed with CC BY-NC-SA 4.0 https://creativecommons.org/licenses/by-nc-sa/4.0/
// @naoto_hieda

//variation of above work

solid().layer(osc(31.4,0).thresh(0.7).luma().modulate(osc(4,1).rotate(1),0.05).color(1,1,1)).layer(osc(31.4,0).thresh(0.7).luma().modulate(osc(4,1).rotate(1),0.1)).out()
